assets/img/mm-icon.svg

<svg fill="none" height="52" viewBox="0 0 52 52" width="52" xmlns="http://www.w3.org/2000/svg"><g stroke-linecap="round" stroke-linejoin="round" stroke-width=".136221"><path d="m41.9381 9.43588-13.554 10.06672 2.5065-5.9392z" fill="#e2761b" stroke="#e2761b"/><g fill="#e4761b" stroke="#e4761b"><path d="m10.6482 9.43594 13.445 10.16206-2.3838-6.0346z"/><path d="m37.0615 32.7706-3.6099 5.5306 7.7237 2.125 2.2204-7.533z"/><path d="m9.2179 32.8932 2.2068 7.533 7.7237-2.125-3.6098-5.5306z"/><path d="m18.7125 23.4258-2.1523 3.2557 7.6692.3406-.2724-8.2414z"/><path d="m33.8739 23.4258-5.3126-4.7405-.1771 8.3368 7.6556-.3406z"/><path d="m19.1484 38.3012 4.6043-2.2477-3.9777-3.1058z"/><path d="m28.8337 36.0535 4.6179 2.2477-.6402-5.3535z"/></g><path d="m33.4515 38.301-4.6179-2.2476.3678 3.0105-.0409 1.2668z" fill="#d7c1b3" stroke="#d7c1b3"/><path d="m19.1483 38.3011 4.291 2.0297-.0273-1.2669.3406-3.0105z" fill="#d7c1b3" stroke="#d7c1b3"/><path d="m23.5074 30.9588-3.8414-1.1306 2.7108-1.2396z" fill="#233447" stroke="#233447"/><path d="m29.0788 30.9588 1.1306-2.3702 2.7245 1.2396z" fill="#233447" stroke="#233447"/><path d="m19.1483 38.3011.6539-5.5305-4.2638.1226z" fill="#cd6116" stroke="#cd6116"/><path d="m32.7976 32.7706.6539 5.5305 3.6098-5.4079z" fill="#cd6116" stroke="#cd6116"/><path d="m36.0397 26.6815-7.6556.3406.7083 3.9367 1.1307-2.3702 2.7244 1.2396z" fill="#cd6116" stroke="#cd6116"/><path d="m19.6659 29.8282 2.7245-1.2396 1.117 2.3702.7219-3.9367-7.6692-.3406z" fill="#cd6116" stroke="#cd6116"/><path d="m16.5601 26.6815 3.2148 6.2661-.1089-3.1194z" fill="#e4751f" stroke="#e4751f"/><path d="m32.9474 29.8282-.1362 3.1195 3.2284-6.2662z" fill="#e4751f" stroke="#e4751f"/><path d="m24.2293 27.0221-.722 3.9367.8991 4.6452.2043-6.1163z" fill="#e4751f" stroke="#e4751f"/><path d="m28.384 27.0221-.3678 2.4519.1635 6.13.9127-4.6452z" fill="#e4751f" stroke="#e4751f"/><path d="m29.0925 30.9588-.9127 4.6451.6538.4495 3.9777-3.1058.1362-3.1195z" fill="#f6851b" stroke="#f6851b"/><path d="m19.666 29.8281.1089 3.1195 3.9777 3.1058.6538-.4495-.899-4.6451z" fill="#f6851b" stroke="#f6851b"/><path d="m29.1606 40.3308.0408-1.2669-.3405-.2997h-5.1356l-.3133.2997.0273 1.2669-4.291-2.0297 1.4984 1.226 3.0378 2.1114h5.2172l3.0514-2.1114 1.4984-1.226z" fill="#c0ad9e" stroke="#c0ad9e"/><path d="m28.8336 36.0535-.6538-.4496h-3.7733l-.6539.4496-.3406 3.0104.3133-.2996h5.1356l.3405.2996z" fill="#161616" stroke="#161616"/><path d="m42.5102 20.1565 1.1579-5.5578-1.73-5.16276-13.1045 9.72616 5.0402 4.2637 7.1243 2.0842 1.5802-1.839-.6811-.4904 1.0898-.9944-.8446-.6538 1.0898-.831z" fill="#763d16" stroke="#763d16"/><path d="m8.93175 14.5987 1.15785 5.5578-.73557.5449 1.08977.8309-.83095.6539 1.08975.9944-.6811.4904 1.5666 1.839 7.1243-2.0842 5.0402-4.2637-13.1045-9.72622z" fill="#763d16" stroke="#763d16"/><path d="m40.9982 25.5099-7.1244-2.0841 2.1659 3.2556-3.2284 6.2662 4.2501-.0545h6.3342z" fill="#f6851b" stroke="#f6851b"/><path d="m18.7124 23.4258-7.1244 2.0841-2.37021 7.3832h6.32061l4.2365.0545-3.2148-6.2662z" fill="#f6851b" stroke="#f6851b"/><path d="m28.3841 27.022.4495-7.8599 2.0706-5.5987h-9.1949l2.0433 5.5987.4768 7.8599.1634 2.4792.0136 6.1027h3.7734l.0272-6.1027z" fill="#f6851b" stroke="#f6851b"/></g></svg>

<svg width="52" height="52" viewBox="0 0 52 52" fill="none" xmlns="http://www.w3.org/2000/svg">
<path d="M41.9381 9.43588L28.3841 19.5026L30.8906 13.5634L41.9381 9.43588Z" fill="#E2761B" stroke="#E2761B" stroke-width="0.136221" stroke-linecap="round" stroke-linejoin="round"/>
<path d="M10.6482 9.43594L24.0932 19.598L21.7094 13.5634L10.6482 9.43594Z" fill="#E4761B" stroke="#E4761B" stroke-width="0.136221" stroke-linecap="round" stroke-linejoin="round"/>
<path d="M37.0615 32.7706L33.4516 38.3012L41.1753 40.4262L43.3957 32.8932L37.0615 32.7706Z" fill="#E4761B" stroke="#E4761B" stroke-width="0.136221" stroke-linecap="round" stroke-linejoin="round"/>
<path d="M9.2179 32.8932L11.4247 40.4262L19.1484 38.3012L15.5386 32.7706L9.2179 32.8932Z" fill="#E4761B" stroke="#E4761B" stroke-width="0.136221" stroke-linecap="round" stroke-linejoin="round"/>
<path d="M18.7125 23.4258L16.5602 26.6815L24.2294 27.0221L23.957 18.7807L18.7125 23.4258Z" fill="#E4761B" stroke="#E4761B" stroke-width="0.136221" stroke-linecap="round" stroke-linejoin="round"/>
<path d="M33.8739 23.4258L28.5613 18.6853L28.3842 27.0221L36.0398 26.6815L33.8739 23.4258Z" fill="#E4761B" stroke="#E4761B" stroke-width="0.136221" stroke-linecap="round" stroke-linejoin="round"/>
<path d="M19.1484 38.3012L23.7527 36.0535L19.775 32.9477L19.1484 38.3012Z" fill="#E4761B" stroke="#E4761B" stroke-width="0.136221" stroke-linecap="round" stroke-linejoin="round"/>
<path d="M28.8337 36.0535L33.4516 38.3012L32.8114 32.9477L28.8337 36.0535Z" fill="#E4761B" stroke="#E4761B" stroke-width="0.136221" stroke-linecap="round" stroke-linejoin="round"/>
<path d="M33.4515 38.301L28.8336 36.0534L29.2014 39.0639L29.1605 40.3307L33.4515 38.301Z" fill="#D7C1B3" stroke="#D7C1B3" stroke-width="0.136221" stroke-linecap="round" stroke-linejoin="round"/>
<path d="M19.1483 38.3011L23.4393 40.3308L23.412 39.0639L23.7526 36.0534L19.1483 38.3011Z" fill="#D7C1B3" stroke="#D7C1B3" stroke-width="0.136221" stroke-linecap="round" stroke-linejoin="round"/>
<path d="M23.5074 30.9588L19.666 29.8282L22.3768 28.5886L23.5074 30.9588Z" fill="#233447" stroke="#233447" stroke-width="0.136221" stroke-linecap="round" stroke-linejoin="round"/>
<path d="M29.0788 30.9588L30.2094 28.5886L32.9339 29.8282L29.0788 30.9588Z" fill="#233447" stroke="#233447" stroke-width="0.136221" stroke-linecap="round" stroke-linejoin="round"/>
<path d="M19.1483 38.3011L19.8022 32.7706L15.5384 32.8932L19.1483 38.3011Z" fill="#CD6116" stroke="#CD6116" stroke-width="0.136221" stroke-linecap="round" stroke-linejoin="round"/>
<path d="M32.7976 32.7706L33.4515 38.3011L37.0613 32.8932L32.7976 32.7706Z" fill="#CD6116" stroke="#CD6116" stroke-width="0.136221" stroke-linecap="round" stroke-linejoin="round"/>
<path d="M36.0397 26.6815L28.3841 27.0221L29.0924 30.9588L30.2231 28.5886L32.9475 29.8282L36.0397 26.6815Z" fill="#CD6116" stroke="#CD6116" stroke-width="0.136221" stroke-linecap="round" stroke-linejoin="round"/>
<path d="M19.6659 29.8282L22.3904 28.5886L23.5074 30.9588L24.2293 27.0221L16.5601 26.6815L19.6659 29.8282Z" fill="#CD6116" stroke="#CD6116" stroke-width="0.136221" stroke-linecap="round" stroke-linejoin="round"/>
<path d="M16.5601 26.6815L19.7749 32.9476L19.666 29.8282L16.5601 26.6815Z" fill="#E4751F" stroke="#E4751F" stroke-width="0.136221" stroke-linecap="round" stroke-linejoin="round"/>
<path d="M32.9474 29.8282L32.8112 32.9477L36.0396 26.6815L32.9474 29.8282Z" fill="#E4751F" stroke="#E4751F" stroke-width="0.136221" stroke-linecap="round" stroke-linejoin="round"/>
<path d="M24.2293 27.0221L23.5073 30.9588L24.4064 35.604L24.6107 29.4877L24.2293 27.0221Z" fill="#E4751F" stroke="#E4751F" stroke-width="0.136221" stroke-linecap="round" stroke-linejoin="round"/>
<path d="M28.384 27.0221L28.0162 29.474L28.1797 35.604L29.0924 30.9588L28.384 27.0221Z" fill="#E4751F" stroke="#E4751F" stroke-width="0.136221" stroke-linecap="round" stroke-linejoin="round"/>
<path d="M29.0925 30.9588L28.1798 35.6039L28.8336 36.0534L32.8113 32.9476L32.9475 29.8281L29.0925 30.9588Z" fill="#F6851B" stroke="#F6851B" stroke-width="0.136221" stroke-linecap="round" stroke-linejoin="round"/>
<path d="M19.666 29.8281L19.7749 32.9476L23.7526 36.0534L24.4064 35.6039L23.5074 30.9588L19.666 29.8281Z" fill="#F6851B" stroke="#F6851B" stroke-width="0.136221" stroke-linecap="round" stroke-linejoin="round"/>
<path d="M29.1606 40.3308L29.2014 39.0639L28.8609 38.7642H23.7253L23.412 39.0639L23.4393 40.3308L19.1483 38.3011L20.6467 39.5271L23.6845 41.6385H28.9017L31.9531 39.5271L33.4515 38.3011L29.1606 40.3308Z" fill="#C0AD9E" stroke="#C0AD9E" stroke-width="0.136221" stroke-linecap="round" stroke-linejoin="round"/>
<path d="M28.8336 36.0535L28.1798 35.6039H24.4065L23.7526 36.0535L23.412 39.0639L23.7253 38.7643H28.8609L29.2014 39.0639L28.8336 36.0535Z" fill="#161616" stroke="#161616" stroke-width="0.136221" stroke-linecap="round" stroke-linejoin="round"/>
<path d="M42.5102 20.1565L43.6681 14.5987L41.9381 9.43594L28.8336 19.1621L33.8738 23.4258L40.9981 25.51L42.5783 23.671L41.8972 23.1806L42.987 22.1862L42.1424 21.5324L43.2322 20.7014L42.5102 20.1565Z" fill="#763D16" stroke="#763D16" stroke-width="0.136221" stroke-linecap="round" stroke-linejoin="round"/>
<path d="M8.93175 14.5987L10.0896 20.1565L9.35403 20.7014L10.4438 21.5323L9.61285 22.1862L10.7026 23.1806L10.0215 23.671L11.5881 25.51L18.7124 23.4258L23.7526 19.1621L10.6481 9.43588L8.93175 14.5987Z" fill="#763D16" stroke="#763D16" stroke-width="0.136221" stroke-linecap="round" stroke-linejoin="round"/>
<path d="M40.9982 25.5099L33.8738 23.4258L36.0397 26.6814L32.8113 32.9476L37.0614 32.8931H43.3956L40.9982 25.5099Z" fill="#F6851B" stroke="#F6851B" stroke-width="0.136221" stroke-linecap="round" stroke-linejoin="round"/>
<path d="M18.7124 23.4258L11.588 25.5099L9.21779 32.8931H15.5384L19.7749 32.9476L16.5601 26.6814L18.7124 23.4258Z" fill="#F6851B" stroke="#F6851B" stroke-width="0.136221" stroke-linecap="round" stroke-linejoin="round"/>
<path d="M28.3841 27.022L28.8336 19.1621L30.9042 13.5634H21.7093L23.7526 19.1621L24.2294 27.022L24.3928 29.5012L24.4064 35.6039H28.1798L28.207 29.5012L28.3841 27.022Z" fill="#F6851B" stroke="#F6851B" stroke-width="0.136221" stroke-linecap="round" stroke-linejoin="round"/>
</svg>
